X: 100357
P: AERIAL QUADRILLE Part 4.
M: 2/4
L: 1/16
K: Bb
vFuF !segno!|\
g2f2 c2=Bc | e2d2 B2AB | d2c2 F2GA | B6 ||
uF2 |\
d2c2G2A2 | B2c2d2f2 | f2e2G2A2 | B4(A2B2) |\
c2d2e2f2 | a2g2f2e2 | d2c2e2d2 | B6 "^D.C."||[K:F]
(uAB) |\
c2Ac f2ed | cccc c2(=Bc) | d2c2B2G2 | A2FE (FG)AB |\
c2Ac f2cf | aaaa a2(ba) | gfed cBAG | F2FF F2F"_D.C."F !segno!|]


